X:114
T:Jenny Picking Cockles (can be played fast!)
M:4/4
L:1/8
C:trad
K:DDor
||:d3c AGG/2G/2G|FGAB cAGA|d2dc AGG/2G/2G|E2GE EDDc
  |d3c AGG/2G/2G|FGAB c2cd|eddc AGEF|1GEAE EDDc:||2GEAE EDD2
||:f3d efed|cAGA cdeg|f3d edcd|eaag edde
|f3d efed|cAA/2A/2A c3d|eddc AGEF|GEAE EDD2:||
